alpha-j-box.svg

<svg fill="currentColor" viewBox="0 0 24 24"><path d="M13 7v8h-2v-1H9v1a2 2 0 0 0 2 2h2a2 2 0 0 0 2-2V7zM5 3h14a2 2 0 0 1 2 2v14a2 2 0 0 1-2 2H5a2 2 0 0 1-2-2V5a2 2 0 0 1 2-2"/></svg>

<svg  viewBox="0 0 24 24" fill="currentColor"><path  d="M13,7V15H11V14H9V15A2,2 0 0,0 11,17H13A2,2 0 0,0 15,15V7H13M5,3H19A2,2 0 0,1 21,5V19A2,2 0 0,1 19,21H5A2,2 0 0,1 3,19V5A2,2 0 0,1 5,3Z"/></svg>
